X: 1
T:The 48th Highlanders of Canada Pipes & Drums - March  "CYMRU"
M:C
L:1/8
Q:80
C:A.J. MacDowell
S:
K:HP
[| {g}A3/2B/2{G}Ad{g}f2{Gdc}d3/2c/2|
{gBd}B{e}G{g}B/2d3/2{g}A2-Af|
{g}e3/2f/2{gf}ge{gcd}c2{e}Ae|  !
{Gdc}d3/2e/2{g}fd{g}A2{gBd}B{e}G| |
{g}A3/2B/2{G}Ad{g}f2{Gdc}d3/2c/2|
{gBd}B{e}G{g}B/2d3/2{g}A2-Af|  !
{g}e3/2f/2{gf}ge{gcd}c{e}A{g}c/2e3/2|
{Gdc}d2{gdc}d3/2e/2{Gdc}d2-d3/2A/2|] [|
{g}f3/2e/2{g}fg{ag}a2{fg}fd|  !
{gf}g3/2f/2{g}ed{g}e2-ef|
{g}e3/2f/2{gf}ge{gcd}c2{e}Ae|
{Gdc}d3/2e/2{g}fd{g}A2{gBd}B{e}A| |  !
{g}f3/2e/2{g}fg{ag}a2{fg}fd|
{gf}g3/2f/2{g}ed{g}e2-ef|
{g}e3/2f/2{gf}ge{gcd}c{e}A{g}c/2e3/2|  !
{Gdc}d2{gdc}d3/2e/2{Gdc}d2-d3/2f/2|] [|
{g}A3/2B/2{G}Adf{g}A{Gdc}d3/2c/2|
{gBd}B{e}G{g}B/2d3/2{g}e3/2d/2{gcd}c{e}B|  !
{g}A3/2B/2{GdG}c{Gdc}de{g}A{GAG}Ae|
{Gdc}d3/2e/2{g}fa{fg}f2{g}ed| |
{g}A3/2B/2{G}Adf{g}A{Gdc}d3/2c/2|  !
{gBd}B{e}G{g}B/2d3/2{gf}g2-gf|
{g}e3/2f/2{gf}ge{gcd}c{e}A{g}c/2e3/2|
{Gdc}d2{gdc}d3/2e/2{Gdc}d2-d3/2A/2|] [|  !
a3/2g/2{a}fa{f}g3/2f/2e{g}A|
{Gdc}d3/2e/2{g}fg{ag}a2-af|
{gf}g3/2f/2{g}ed{gcd}c{e}A{g}Bc|  !
{Gdc}d3/2e/2{g}fg{a}e2{AGAG}A2| |
a3/2g/2{a}fa{f}g3/2f/2e{g}A|
{Gdc}d3/2e/2{g}fg{ag}a2gf|  !
{g}e3/2f/2{gf}ge{gcd}c{e}A{g}c/2e3/2|
{Gdc}d2{gdc}d3/2e/2{Gdc}d2-d2|]
